resources/svg/paypal-fill.svg

<svg fill="currentColor" viewBox="0 0 24 24" xmlns="http://www.w3.org/2000/svg"><path d="M20.0673 8.47768C20.5591 9.35823 20.6237 10.4924 20.3676 11.8053C19.627 15.6107 17.0916 16.9253 13.8536 16.9253H13.3536C12.9583 16.9253 12.6216 17.214 12.5596 17.6047L12.519 17.8253L11.8896 21.818L11.857 21.988C11.795 22.3787 11.4583 22.6667 11.063 22.6667H7.72031C7.42365 22.6667 7.19698 22.402 7.24298 22.1093L7.41807 21H8.9367L9.88603 14.9793H11.2716C15.9496 14.9793 19.0209 12.7768 20.0673 8.47768ZM17.1066 3.38784C17.8693 4.25635 18.0908 5.19891 17.8597 6.67324C17.8405 6.79594 17.82 6.91391 17.7973 7.03253C17.0621 10.8057 14.7087 12.4793 10.8417 12.4793H8.95703C8.32647 12.4793 7.78368 12.8928 7.60372 13.4811L7.58913 13.4788L6.65969 19.3733H3.12169C3.08991 19.3733 3.06598 19.3454 3.07097 19.3136L5.66905 2.80233C5.74174 2.34036 6.13984 2 6.6075 2H12.583C14.7658 2 16.2998 2.46869 17.1066 3.38784Z"/></svg>

<svg xmlns="http://www.w3.org/2000/svg" viewBox="0 0 24 24" fill="currentColor">
    <g>
        <path fill="none" d="M0 0h24v24H0z"/>
        <path d="M20.067 8.478c.492.88.556 2.014.3 3.327-.74 3.806-3.276 5.12-6.514 5.12h-.5a.805.805 0 0 0-.794.68l-.04.22-.63 3.993-.032.17a.804.804 0 0 1-.794.679H7.72a.483.483 0 0 1-.477-.558L7.418 21h1.518l.95-6.02h1.385c4.678 0 7.75-2.203 8.796-6.502zm-2.96-5.09c.762.868.983 1.81.752 3.285-.019.123-.04.24-.062.36-.735 3.773-3.089 5.446-6.956 5.446H8.957c-.63 0-1.174.414-1.354 1.002l-.014-.002-.93 5.894H3.121a.051.051 0 0 1-.05-.06l2.598-16.51A.95.95 0 0 1 6.607 2h5.976c2.183 0 3.716.469 4.523 1.388z"/>
    </g>
</svg>
